X:4
T:Andrew Carr. GS.004
M:9/8
L:1/8
Q:3/8=144
S:George Spencer m/s, Leeds,1831
R:.Slip Jig
O:England
A:Leeds
N:This is in a different hand - writing, filling in blank lines at the
N:bottom of
N:pages 4 and 5. Could this be the 'Andrew Kerr' published in Scotlnd in
N:1730?
H:1831
Z:vmp.Cherri Graebe
K:G
g2e dBd dBd | g2g gab aba | g2e dBd def | g2G GAB A2 G :|!
|: B2c dBG dBG | c2 d ecA ecA | B2 c dBG def | g2 d GAB A2 G ?

